src/main/resources/icons/mobFile.svg

<?xml version="1.0" encoding="UTF-8" standalone="no"?>
<svg
   xmlns="http://www.w3.org/2000/svg"
   width="16"
   height="16"
   viewBox="0 0 16 16"
   version="1.1">
  <defs
     id="defs12" />
  <path
     style="fill:#0652ff;fill-opacity:0.6;fill-rule:evenodd"
     id="path2"
     d="M 15,8.0000002 C 15,11.866 11.866,15 8.0000001,15 c -3.866,0 -7,-3.134 -7,-6.9999998 0,-3.866 3.134,-7 7,-7 3.8659999,0 6.9999999,3.134 6.9999999,7" />
  <g
     id="text824">
    <path
       id="path1408"
       style="fill:#ffffff;fill-opacity:0.7"
       d="M 4.8873698,4.5979823 H 6.2591146 L 7.9954427,9.2281905 9.7408853,4.5979823 H 11.11263 V 11.402019 H 10.214844 V 5.4274094 L 8.4602864,10.094076 H 7.5351562 L 5.780599,5.4274094 V 11.402019 H 4.8873698 Z" />
  </g>
</svg>

<svg xmlns="http://www.w3.org/2000/svg" width="16" height="16">
    <path d="M15 8A7 7 0 111 8a7 7 0 0114 0" fill="#0652ff" fill-opacity=".6" fill-rule="evenodd"/>
    <path d="M4.887 4.598H6.26l1.736 4.63 1.746-4.63h1.372v6.804h-.898V5.427L8.46 10.094h-.925L5.781 5.427v5.975h-.894z"
          fill="#fff" fill-opacity=".7"/>
</svg>
